X:1
T:Title
%%score { ( 1 3 ) | 2 }
L:1/8
M:4/4
K:Bb
V:1 treble nm="Grand Piano"
V:3 treble 
V:2 bass 
V:1
 z4 z2[Q:1/4=94] F2 | [Fd][Fd][Ec][Ec] [DB][DB][DF][D^F] |[M:7/8] GGG G c3 |[M:1/8] B | %4
[M:4/4] A>G FG AGFG | [DF]6 [DF]2 | [Fd][Fd][Ec][Ec] [DB][DB][DF][D^F] | %7
[M:19/16] [EG][EG][Gc][Fd][Ee]/-[Ee]/-[Ee]/-[Ee]/-[Ee]/-[Ee]-<[Ee][EG] |[M:4/4] A>G FG AGFc | %9
[M:3/4] [DB]6 |[M:1/4] [DF]2 |[M:4/4] [Fd]>[Fd] [Ec][Ec] [DB][DF][DB][DA] | G6 z2 | c>c AG FABc | %14
 [Fd]6 z2 | [Fd][Fd][Ec][Ec] [DB]3 [DF] | %16
[M:19/16] [EG][EG][Gc][Fd][Ee]/-[Ee]/-[Ee]/-[Ee]/-[Ee]/-[Ee]-<[Ee][EG] |[M:4/4] A>G FG AGFc | %18
[M:3/4] [DB]6 |] %19
V:2
 z4 z2 F,2 | [B,,B,][B,,B,][F,A,][F,A,] [B,,B,][B,,B,][B,,B,][B,,B,] | %2
[M:7/8] [E,B,E][E,B,E][E,B,E] [E,B,E] [E,G,E]3 |[M:1/8] [E,G,E] | %4
[M:4/4] [F,E]>[F,G,E] [F,A,E][F,B,E] [F,CE][F,B,E][F,A,E][F,A,E] | [B,,B,]6 [B,,B,]2 | %6
 [B,,B,][B,,B,][F,A,][F,A,] [B,,B,][B,,B,][B,,B,][B,,B,] | %7
[M:19/16] [E,B,][E,B,][E,B,][D,=B,][C,C]/-[C,C]/-[C,C]/-[C,C]/-[C,C]/-[C,C]-<[C,C][C,C] | %8
[M:4/4] [F,CE]>[F,B,E] [F,A,E][F,B,E] [F,CE][F,B,E][F,A,E][F,A,E] |[M:3/4] [B,,B,]6 | %10
[M:1/4] [B,,B,]2 |[M:4/4] [B,,B,]>[B,,B,] [F,A,][F,A,] [B,,B,][B,,B,][B,,B,][B,,B,] | %12
 [E,B,E]2 [D,=B,][D,B,] [C,C]3 [C,C] | [F,A,E]>[F,A,E] [F,CE][F,B,E] [F,A,E][F,CE][F,B,D][F,A,E] | %14
 [B,,B,]2 B,,B,, B,,2 [B,,B,]2 | [B,,B,][B,,B,][F,B,][F,A,] [B,,B,]3 [B,,B,] | %16
[M:19/16] [E,B,][E,B,][E,B,][D,=B,][C,C]/-[C,C]/-[C,C]/-[C,C]/-[C,C]/-[C,C]-<[C,C][C,C] | %17
[M:4/4] [F,CE]>[F,B,E] [F,A,E][F,B,E] [F,CE][F,B,E][F,A,E][F,A,E] |[M:3/4] [B,,B,]6 |] %19
V:3
 x8 | x8 |[M:7/8] x7 |[M:1/8] x |[M:4/4] x8 | x8 | x8 |[M:19/16] x19/2 |[M:4/4] x8 |[M:3/4] x6 | %10
[M:1/4] x2 |[M:4/4] x8 | z2 FF E3 [EG] | x8 | z2 B,B, B,2 [DF]2 | x8 |[M:19/16] x19/2 |[M:4/4] x8 | %18
[M:3/4] x6 |] %19

